X: 45
T: the Boot
%%VWML:Thompsons1774-3047-p23-0
F:http://www.vwml.org/record/Thompsons1774/3047/p23 M: 2/4
L: 1/8
Z: 2011 John Chambers <jc:trillian.mit.edu>
B: Charles & Samuel Thompson eds "Twenty Four Country Dances", London 1774, p.23 #1 
K: A
%-------------------------
|:\
(a>e)(c>A) | Td2c>B | (a>e)(c>A) | T[B4E4] |\
a>ec>A | G>BE>d | c>Ae>c | [B4E4] :|
|:\
(B>E)(d>E) | c>ec>A | B>dc>g | a4 |\
f>de>c d>Bc>a | f>dc>B | A4 :|
% - - - - - - - - Dance description - - - - - - - -
%%begintext align
%% The first Man and Wo: sets to the 2d Man and all
%% three turn hands .|. the same to the 2d Wo: :|. the
%% first Cu: cross over and lead thro the 3d Cu: and
%% cast up and right Hands and left .|: :|:
%%endtext
T: Polly Cleveland's Favourite 
R: reel
M: 2/4
L: 1/8
Z: 2011 John Chambers <jc:trillian.mit.edu>
B: Charles & Samuel Thompson eds "Twenty Four Country Dances", London 1774, p.23 #2 
K: D
%-------------------------
|:\
d2 Tc2 | (dA) (FD) | dfed | c2 TB2 |\
AceG | FdcB | A2T^G2 | A4 :|
|:\
AB cd | e2f2 | gbag | Tf4 |\
egfc | dBA2 | TB3c | dBAG |\
F2TE2 | D4 :|
% - - - - - - - - Dance description - - - - - - - -
%%begintext align
%% The first and 2d Cu: set and Change sides .|. set and lead
%% to your own side :|. cross over foot it right Hands and
%% left .|: :|:
%%endtext
